!!!OTL: Reyersweilerlied (2-17) S. 57
!!!id: P0890
**kern
*clefG2
*k[f#c#]
*D:
{8d
8f#
=1
4a
4a
8a
8b
8a
8g
=2
4f#
8f#
8f#
4f#}
=3
{4d
=4
4.e
8f#
8g
8b
8a
8g
=5
4g
4f#}
4r
=6
{4a
=7
8b
8b
8a
8a
4b
8cc#
8ee
=8
8dd
8cc#
8dd
8b
4a}
=9
{4e
=10
4a
8e
8e
4a
8e
8g
=11
4f#
4e
4d}
=12
{4a
=13
8b
8b
8a
8a
4b
8cc#
8ee
=14
8dd
8cc#
8dd
8b
4a}
=15
{4e
=16
4a
8e
8e
4a
8e
8g
=17
4f#
4e
4d}
==
*-
!!!minrhy: 8
!!!meters: 4/4 ]  ZZ[6
!!!cut: Reyersweilerlied (2-17) S. 57
!!!reg: Lothringen
!!!trd: PINCK, Louis: Verklingende Weisen, Bd 2, Metz 1928
!!!rhy1: XX  X_X_XXXX  X_XXX_
!!!rhy2: X_  X_.XXXXX  X_X_0_
!!!key: P0890  08  D 4/4 ]  ZZ[6
!!!mod: HEPTATONIK IONISCH]  AMBITUS[9
!!!kad: 335151
!!!akz: 5533_244_66+15_5531_66+15_5531_
!!!fot: 'a__b__c__aw_c__aw_
!!!for: 'a__b__c__d__c__d__
!!!fok: '^a_^a_^__^d_^__^d_
!! PHRAS[AUFTAKTIG]
!!!fkt: geistliche, religiöse Lieder
!! LOTH VKL
!! PR[27] 2K[5] 2G[23] 3K[0] 3G[0] 4A[5] 4Ü[0] 5A[0] 6K[0] 6G[0]
!! 7K[0] 7G[0] 8A[0] MEHR[0] SI[32] ABS[22] SR[27] SP[5]
!! ST[8] 2k[9] 2g[32] 3k[0] 3g[0] 4d[0] 4ü[0] 5d[0] 6k[0] 6g[0]
!! 7k[0] 7g[0] 8d[0] mehr[0] si[41] dm[-9] sr[41] sp[0]
!! 1F[61] 2F[39] 3F[0] 4F[0] LF[0] 2P[0] 3P[0] 4P[0] TRI[0] DF[2] AB[23]
!! TF[0] U3K[0] U3[0] U4[0] U4Ü[0] U5[0] U6K[0] U6[0] U7K[0] U7[0]
!! N1[26] N2K[0] N2[39] N3K[0] N3[22] N4[9] N4Ü[0] N5[4] N6K[0] N6[0]
!!!n7k: 0] N7[0] O1[0] O2K[0] O2[0] O3K[0] O3[0] HÖ[0
